**harmony	**harte	**kern	**silbe	**kern.1	**silbe.1	**rhyme	**timestamp	**phrase
*M4/4	*M4/4	*ICvox	*	*ICvox	*	*	*	*
*	*	*VRlead	*	*VRharmonize*VRresponse	*	*	*	*
*	*	*Hstimme	*	*Nstimme	*	*	*	*
*D:	*D:	*D:	*	*D:	*	*	*	*
*	*	*M4/4	*	*M4/4	*	*	*	*
*	*	*clefG2	*	*clefG2	*	*	*	*
1r;	1r	r;	.	r;	.	.	0	.
1r;	1r	r;	.	r;	.	.	0.037	.
=1	=1	=1	=1	=1	=1	=1	=1	=1
*>Letter>A	*>Letter>A	*>Letter>A	*>Letter>A	*>Letter>A	*>Letter>A	*>Letter>A	*>Letter>A	*>Letter>A
*>Label>Intro	*>Label>Intro	*>Label>Intro	*>Label>Intro	*>Label>Intro	*>Label>Intro	*>Label>Intro	*>Label>Intro	*>Label>Intro
1DM	D:maj	1r	.	1r	.	.	0.366	newline
=2	=2	=2	=2	=2	=2	=2	=2	=2
1AM	A:maj	1r	.	1r	.	.	2.676	.
=3	=3	=3	=3	=3	=3	=3	=3	=3
1DM	D:maj/3	1r	.	1r	.	.	4.987	.
=4	=4	=4	=4	=4	=4	=4	=4	=4
1GM	G:maj	1r	.	1r	.	.	7.298	.
=5	=5	=5	=5	=5	=5	=5	=5	=5
1DM	D:maj	1r	.	1r	.	.	9.608	newline
=6	=6	=6	=6	=6	=6	=6	=6	=6
1AM	A:maj	1r	.	1r	.	.	11.94	.
=7	=7	=7	=7	=7	=7	=7	=7	=7
1DM	D:maj/3	1r	.	1r	.	.	14.272	.
=8	=8	=8	=8	=8	=8	=8	=8	=8
1GM	G:maj	1r	.	1r	.	.	16.604	.
=9	=9	=9	=9	=9	=9	=9	=9	=9
1DM	D:maj	1r	.	1r	.	.	18.936	newline
=10	=10	=10	=10	=10	=10	=10	=10	=10
1AM	A:maj	1r	.	1r	.	.	21.254	.
=11	=11	=11	=11	=11	=11	=11	=11	=11
1DM	D:maj/3	1r	.	1r	.	.	23.573	.
=12	=12	=12	=12	=12	=12	=12	=12	=12
1GM	G:maj	1r	.	1r	.	.	25.892	.
=13	=13	=13	=13	=13	=13	=13	=13	=13
1DM	D:maj	1r	.	1r	.	.	28.21	newline
=14	=14	=14	=14	=14	=14	=14	=14	=14
1AM	A:maj	1r	.	1r	.	.	30.509	.
=15	=15	=15	=15	=15	=15	=15	=15	=15
1DM	D:maj/3	1r	.	1r	.	.	32.807	.
=16	=16	=16	=16	=16	=16	=16	=16	=16
1GM	G:maj	1r	.	1r	.	.	35.106	.
=17	=17	=17	=17	=17	=17	=17	=17	=17
1FM	F:maj	1r	.	1r	.	.	37.405	newline
=18	=18	=18	=18	=18	=18	=18	=18	=18
1CM	C:maj	1r	.	1r	.	.	39.742	.
=19	=19	=19	=19	=19	=19	=19	=19	=19
1GM	G:maj	1r	.	1r	.	.	42.08	.
=20	=20	=20	=20	=20	=20	=20	=20	=20
1GM	G:maj	1r	.	1r	.	.	44.417	.
=21	=21	=21	=21	=21	=21	=21	=21	=21
*>Letter>B	*>Letter>B	*>Letter>B	*>Letter>B	*>Letter>B	*>Letter>B	*>Letter>B	*>Letter>B	*>Letter>B
*>Label>Trans	*>Label>Trans	*>Label>Trans	*>Label>Trans	*>Label>Trans	*>Label>Trans	*>Label>Trans	*>Label>Trans	*>Label>Trans
2DM	D:5	1r	.	1r	.	.	46.754	newline
2FM	F:maj	.	.	.	.	.	47.914	.
=22	=22	=22	=22	=22	=22	=22	=22	=22
2GM	G:5	1r	.	1r	.	.	49.073	.
2Am	A:min	.	.	.	.	.	50.233	.
=23	=23	=23	=23	=23	=23	=23	=23	=23
2DM	D:5	1r	.	1r	.	.	51.392	.
2FM	F:maj	.	.	.	.	.	52.551	.
=24	=24	=24	=24	=24	=24	=24	=24	=24
4GM	G:5	1r	.	1r	.	.	53.711	.
2B-M	B-:maj	.	.	.	.	.	54.291	.
4CM	C:maj	.	.	.	.	.	55.45	.
=25	=25	=25	=25	=25	=25	=25	=25	=25
2DM	D:5	1r	.	1r	.	.	56.03	newline
2FM	F:maj	.	.	.	.	.	57.184	.
=26	=26	=26	=26	=26	=26	=26	=26	=26
2GM	G:5	1r	.	1r	.	.	58.339	.
2Am	A:min	.	.	.	.	.	59.493	.
=27	=27	=27	=27	=27	=27	=27	=27	=27
2DM	D:5	1r	.	1r	.	.	60.648	.
2FM	F:maj	.	.	.	.	.	61.802	.
=28	=28	=28	=28	=28	=28	=28	=28	=28
1GM	G:5	1r	.	1r	.	.	62.957	.
=29	=29	=29	=29	=29	=29	=29	=29	=29
*>Letter>C	*>Letter>C	*>Letter>C	*>Letter>C	*>Letter>C	*>Letter>C	*>Letter>C	*>Letter>C	*>Letter>C
*>Label>Verse	*>Label>Verse	*>Label>Verse	*>Label>Verse	*>Label>Verse	*>Label>Verse	*>Label>Verse	*>Label>Verse	*>Label>Verse
2DM	D:5	8dd	Eve-	1r	.	.	65.266	newline
.	.	8g	-ry-	.	.	.	.	.
.	.	8g	-bo-	.	.	.	.	.
.	.	8f	-dy's	.	.	.	.	.
2FM	F:maj	8g	loo-	.	.	.	66.427	.
.	.	8f	-kin'	.	.	a	.	.
.	.	8d	for	.	.	.	.	.
.	.	8f	some-	.	.	.	.	.
=30	=30	=30	=30	=30	=30	=30	=30	=30
2GM	G:5	4d	-thin'	1r	.	a	67.587	.
.	.	4r	.	.	.	.	.	.
2Am	A:min	2r	.	.	.	.	68.748	.
=31	=31	=31	=31	=31	=31	=31	=31	=31
2DM	D:5	8r	.	1r	.	.	69.908	.
.	.	8a	Some-	.	.	.	.	.
.	.	8g	-thin'	.	.	.	.	.
.	.	8f	to	.	.	.	.	.
2FM	F:maj	8g	fill	.	.	.	71.069	.
.	.	8f	in	.	.	.	.	.
.	.	8d	the	.	.	.	.	.
.	.	16f	holes	.	.	B	.	.
.	.	[16d	_	.	.	.	.	.
=32	=32	=32	=32	=32	=32	=32	=32	=32
4GM	G:5	4d]	_	1r	.	.	72.23	.
2B-M	B-:maj	4r	.	.	.	.	72.81	.
.	.	2r	.	.	.	.	.	.
4CM	C:maj	.	.	.	.	.	73.97	.
=33	=33	=33	=33	=33	=33	=33	=33	=33
2DM	D:5	8r	.	1r	.	.	74.551	newline
.	.	8dd	We	.	.	.	.	.
.	.	16g	think	.	.	.	.	.
.	.	16f	a	.	.	.	.	.
.	.	8g	lot	.	.	.	.	.
2FM	F:maj	8r	.	.	.	.	75.71	.
.	.	8f	but	.	.	.	.	.
.	.	8g	don't	.	.	.	.	.
.	.	8r	.	.	.	.	.	.
=34	=34	=34	=34	=34	=34	=34	=34	=34
2GM	G:5	8g	talk	1r	.	.	76.869	.
.	.	8g	much	.	.	.	.	.
.	.	8f	a-	.	.	.	.	.
.	.	16a	-bout	.	.	.	.	.
.	.	[16f	it	.	.	A	.	.
2Am	A:min	4f]	_	.	.	.	78.028	.
.	.	4r	.	.	.	.	.	.
=35	=35	=35	=35	=35	=35	=35	=35	=35
2DM	D:5	8r	.	1r	.	.	79.187	.
.	.	8c	till	.	.	.	.	.
.	.	8d	things	.	.	.	.	.
.	.	8a	get	.	.	.	.	.
2FM	F:maj	8g	out	.	.	.	80.346	.
.	.	8f	of	.	.	.	.	.
.	.	8d	con-	.	.	.	.	.
.	.	8f	-trol	.	.	B	.	.
=36	=36	=36	=36	=36	=36	=36	=36	=36
2CM	C:maj	8d	_	1r	.	.	81.505	.
.	.	16A	_	.	.	.	.	.
.	.	16G	_	.	.	.	.	.
.	.	4r	.	.	.	.	.	.
2Am	A:min	8r	.	.	.	.	82.665	.
.	.	4b	Oh!	.	.	B	.	.
.	.	8r	.	.	.	.	.	.
=37	=37	=37	=37	=37	=37	=37	=37	=37
*>Letter>D	*>Letter>D	*>Letter>D	*>Letter>D	*>Letter>D	*>Letter>D	*>Letter>D	*>Letter>D	*>Letter>D
*>Label>Chorus	*>Label>Chorus	*>Label>Chorus	*>Label>Chorus	*>Label>Chorus	*>Label>Chorus	*>Label>Chorus	*>Label>Chorus	*>Label>Chorus
1DM	D:maj	1r	.	8f#	How	.	83.824	newline
.	.	.	.	8g	do	.	.	.
.	.	.	.	8a	I	.	.	.
.	.	.	.	4a	know	.	.	.
.	.	.	.	8g	when	.	.	.
.	.	.	.	8f#	it's	.	.	.
.	.	.	.	[8e	love?	.	.	.
=38	=38	=38	=38	=38	=38	=38	=38	=38
1AM	A:maj	2r	.	4e]	_	.	86.142	.
.	.	.	.	4r	.	.	.	.
.	.	8b	I	2r	.	.	.	.
.	.	4cc#	can't	.	.	.	.	.
.	.	[8dd	tell	.	.	.	.	.
=39	=39	=39	=39	=39	=39	=39	=39	=39
1Bm	B:min	8dd]	_	1r	.	.	88.461	.
.	.	8b	you	.	.	.	.	.
.	.	8f#	but	.	.	.	.	.
.	.	8d	it	.	.	.	.	.
.	.	8d	last	.	.	.	.	.
.	.	4f#	for-	.	.	.	.	.
.	.	8f#	-e-	.	.	(C	.	.
=40	=40	=40	=40	=40	=40	=40	=40	=40
2Em	E:sus4	4e	-ver	1r	.	c)	90.779	.
.	.	4r	.	.	.	.	.	.
2AM	A:maj	8r	.	.	.	.	91.939	.
.	.	4b	Oh	.	.	.	.	.
.	.	[8a	_	.	.	.	.	.
=41	=41	=41	=41	=41	=41	=41	=41	=41
1DM	D:maj	8a]	_	8f#	How	.	93.098	newline
.	.	8r	.	8g	does	.	.	.
.	.	4r	.	8a	it	.	.	.
.	.	.	.	[8a	feel-	.	.	.
.	.	2r	.	8a]	_	.	.	.
.	.	.	.	8g	-when	.	.	.
.	.	.	.	8f#	it's	.	.	.
.	.	.	.	[8e	love?	.	.	.
=42	=42	=42	=42	=42	=42	=42	=42	=42
1AM	A:maj	4r	.	4e]	_	.	95.435	.
.	.	4r	.	4r	.	.	.	.
.	.	8b	It's	2r	.	.	.	.
.	.	4cc#	just	.	.	.	.	.
.	.	[8dd	some-	.	.	.	.	.
=43	=43	=43	=43	=43	=43	=43	=43	=43
1Bm	B:min	8dd]	_	1r	.	.	97.772	.
.	.	8b	-thing	.	.	.	.	.
.	.	8f#	you	.	.	.	.	.
.	.	8d	feel	.	.	.	.	.
.	.	4r	.	.	.	.	.	.
.	.	8f#	to-	.	.	.	.	.
.	.	8f#	-ge-	.	.	(C	.	.
=44	=44	=44	=44	=44	=44	=44	=44	=44
2Em	E:sus4	4e	-ther	1r	.	c)	100.11	.
.	.	4r	.	.	.	.	.	.
2AM	A:maj	8r	.	.	.	.	101.278	.
.	.	8b	When	.	.	.	.	.
.	.	8b	it's	.	.	.	.	.
.	.	8a	love	.	.	.	.	.
=45	=45	=45	=45	=45	=45	=45	=45	=45
*>Letter>B	*>Letter>B	*>Letter>B	*>Letter>B	*>Letter>B	*>Letter>B	*>Letter>B	*>Letter>B	*>Letter>B
*>Label>Trans	*>Label>Trans	*>Label>Trans	*>Label>Trans	*>Label>Trans	*>Label>Trans	*>Label>Trans	*>Label>Trans	*>Label>Trans
1DM	D:maj	2f#	_	1r	.	.	102.447	newline
.	.	2r	.	.	.	.	.	.
=46	=46	=46	=46	=46	=46	=46	=46	=46
1AM	A:maj	1r	.	1r	.	.	104.764	.
=47	=47	=47	=47	=47	=47	=47	=47	=47
1Bm	B:min	1r	.	1r	.	.	107.081	.
=48	=48	=48	=48	=48	=48	=48	=48	=48
2FM	F:maj	1r	.	1r	.	.	109.398	.
2GM	G:maj	.	.	.	.	.	110.557	.
=49	=49	=49	=49	=49	=49	=49	=49	=49
*>Letter>C	*>Letter>C	*>Letter>C	*>Letter>C	*>Letter>C	*>Letter>C	*>Letter>C	*>Letter>C	*>Letter>C
*>Label>Verse	*>Label>Verse	*>Label>Verse	*>Label>Verse	*>Label>Verse	*>Label>Verse	*>Label>Verse	*>Label>Verse	*>Label>Verse
2DM	D:5	8r	.	1r	.	.	111.715	newline
.	.	8dd	You	.	.	.	.	.
.	.	8dd	look	.	.	.	.	.
.	.	8f	at	.	.	.	.	.
2FM	F:maj	8g	eve-	.	.	.	112.871	.
.	.	8f	-ry	.	.	.	.	.
.	.	8r	.	.	.	.	.	.
.	.	[8a	face	.	.	.	.	.
=50	=50	=50	=50	=50	=50	=50	=50	=50
2GM	G:5	8a]	_	1r	.	.	114.026	.
.	.	16d	in	.	.	.	.	.
.	.	16d	the	.	.	.	.	.
.	.	8d	crowd	.	.	.	.	.
.	.	8f	_	.	.	.	.	.
2Am	A:min	2r	.	.	.	.	115.181	.
=51	=51	=51	=51	=51	=51	=51	=51	=51
2DM	D:5	8r	.	1r	.	.	116.337	.
.	.	8a	Some	.	.	.	.	.
.	.	8g	shine	.	.	.	.	.
.	.	8f	and	.	.	.	.	.
2FM	F:maj	8g	some	.	.	.	117.492	.
.	.	8g	keep	.	.	.	.	.
.	.	8a	you	.	.	.	.	.
.	.	8g	guess-	.	.	(D	.	.
=52	=52	=52	=52	=52	=52	=52	=52	=52
4GM	G:5	4f	-in'	1r	.	d)	118.647	.
2B-M	B-:maj	4r	.	.	.	.	119.225	.
.	.	2r	.	.	.	.	.	.
4CM	C:maj	.	.	.	.	.	120.38	.
=53	=53	=53	=53	=53	=53	=53	=53	=53
2DM	D:5	8dd	Wait-	1r	.	.	120.958	newline
.	.	8a	-ing	.	.	.	.	.
.	.	8g	for	.	.	.	.	.
.	.	8g	some-	.	.	.	.	.
2FM	F:maj	4f	-one	.	.	.	122.122	.
.	.	8r	.	.	.	.	.	.
.	.	8d	to	.	.	.	.	.
=54	=54	=54	=54	=54	=54	=54	=54	=54
2GM	G:maj	8g	come	1r	.	.	123.285	.
.	.	8g	in-	.	.	.	.	.
.	.	8f	-to	.	.	.	.	.
.	.	16a	fo-	.	.	.	.	.
.	.	[16f	-cus	.	.	.	.	.
2Am	A:min	4f]	_	.	.	.	124.449	.
.	.	4r	.	.	.	.	.	.
=55	=55	=55	=55	=55	=55	=55	=55	=55
2DM	D:5	8r	.	1r	.	.	125.613	.
.	.	8c	Teach	.	.	.	.	.
.	.	8d	you	.	.	.	.	.
.	.	8a	your	.	.	.	.	.
2FM	F:maj	8g	fi-	.	.	.	126.776	.
.	.	8f	-nal	.	.	.	.	.
.	.	8d	love	.	.	.	.	.
.	.	8f	le-	.	.	(D	.	.
=56	=56	=56	=56	=56	=56	=56	=56	=56
2GM	G:maj	8d	-sson	1r	.	d)	127.94	.
.	.	16A	_	.	.	.	.	.
.	.	16G	_	.	.	.	.	.
.	.	4r	.	.	.	.	.	.
2AM	A:maj	2r	.	.	.	.	129.104	.
=57	=57	=57	=57	=57	=57	=57	=57	=57
*>Letter>D	*>Letter>D	*>Letter>D	*>Letter>D	*>Letter>D	*>Letter>D	*>Letter>D	*>Letter>D	*>Letter>D
*>Label>Chorus	*>Label>Chorus	*>Label>Chorus	*>Label>Chorus	*>Label>Chorus	*>Label>Chorus	*>Label>Chorus	*>Label>Chorus	*>Label>Chorus
1DM	D:maj	1r	.	8f#	How	.	130.267	newline
.	.	.	.	8g	do	.	.	.
.	.	.	.	8a	I	.	.	.
.	.	.	.	4a	know	.	.	.
.	.	.	.	8g	when	.	.	.
.	.	.	.	8f#	it's	.	.	.
.	.	.	.	[8e	love?	.	.	.
=58	=58	=58	=58	=58	=58	=58	=58	=58
1AM	A:maj	2r	.	4e]	_	.	132.585	.
.	.	.	.	4r	.	.	.	.
.	.	8b	I	2r	.	.	.	.
.	.	4cc#	can't	.	.	.	.	.
.	.	[8dd	tell	.	.	.	.	.
=59	=59	=59	=59	=59	=59	=59	=59	=59
1Bm	B:min	8dd]	_	1r	.	.	134.902	.
.	.	8b	you	.	.	.	.	.
.	.	8f#	but	.	.	.	.	.
.	.	8d	it	.	.	.	.	.
.	.	8d	last	.	.	.	.	.
.	.	4f#	for-	.	.	.	.	.
.	.	8f#	-e-	.	.	(C	.	.
=60	=60	=60	=60	=60	=60	=60	=60	=60
2Em	E:sus4	4e	-ver	1r	.	c)	137.22	.
.	.	4r	.	.	.	.	.	.
2AM	A:maj	8r	.	.	.	.	138.378	.
.	.	4b	Oh	.	.	.	.	.
.	.	[8a	_	.	.	.	.	.
=61	=61	=61	=61	=61	=61	=61	=61	=61
1DM	D:maj	8a]	_	8f#	How	.	139.537	newline
.	.	8r	.	8g	does	.	.	.
.	.	4r	.	8a	it	.	.	.
.	.	.	.	[8a	feel	.	.	.
.	.	2r	.	8a]	_	.	.	.
.	.	.	.	8g	when	.	.	.
.	.	.	.	8f#	it's	.	.	.
.	.	.	.	[8e	love?	.	.	.
=62	=62	=62	=62	=62	=62	=62	=62	=62
1AM	A:maj	4r	.	4e]	_	.	141.87	.
.	.	4r	.	4r	.	.	.	.
.	.	8b	It's	2r	.	.	.	.
.	.	4cc#	just	.	.	.	.	.
.	.	[8dd	some-	.	.	.	.	.
=63	=63	=63	=63	=63	=63	=63	=63	=63
1Bm	B:min	8dd]	_	1r	.	.	144.203	.
.	.	8b	-thing	.	.	.	.	.
.	.	8f#	you	.	.	.	.	.
.	.	8d	feel	.	.	.	.	.
.	.	4r	.	.	.	.	.	.
.	.	8f#	to-	.	.	.	.	.
.	.	8f#	-ge-	.	.	(C	.	.
=64	=64	=64	=64	=64	=64	=64	=64	=64
2Em	E:sus4	4e	-ther	1r	.	c)	146.537	.
.	.	4r	.	.	.	.	.	.
2AM	A:maj	2r	.	.	.	.	147.703	.
=65	=65	=65	=65	=65	=65	=65	=65	=65
*>Letter>E	*>Letter>E	*>Letter>E	*>Letter>E	*>Letter>E	*>Letter>E	*>Letter>E	*>Letter>E	*>Letter>E
*>Label>Bridge	*>Label>Bridge	*>Label>Bridge	*>Label>Bridge	*>Label>Bridge	*>Label>Bridge	*>Label>Bridge	*>Label>Bridge	*>Label>Bridge
1FM	F:maj	1r	.	4r	.	.	148.87	newline
.	.	.	.	8cc	Oh	.	.	.
.	.	.	.	4.a	_	.	.	.
.	.	.	.	8cc	Oh	.	.	.
.	.	.	.	8b	_	.	.	.
=66	=66	=66	=66	=66	=66	=66	=66	=66
1GM	G:maj	8r	.	1r	.	.	151.195	.
.	.	2dd	Oh	.	.	.	.	.
.	.	16b	when	.	.	.	.	.
.	.	8.b	it's	.	.	.	.	.
.	.	16cc	love	.	.	.	.	.
.	.	16b	_	.	.	.	.	.
=67	=67	=67	=67	=67	=67	=67	=67	=67
1FM	F:maj	4a	_	4r	.	.	153.52	.
.	.	4r	.	8cc	Oh	.	.	.
.	.	.	.	[8a	_	.	.	.
.	.	2r	.	4a]	_	.	.	.
.	.	.	.	8cc	Oh	.	.	.
.	.	.	.	[8dd	_	.	.	.
=68	=68	=68	=68	=68	=68	=68	=68	=68
1GM	G:maj	8r	.	8dd]	_	.	155.845	.
.	.	8cc	You	8r	.	.	.	.
.	.	8b	can	4r	.	.	.	.
.	.	[8dd	feel	.	.	.	.	.
.	.	8dd]	_	2r	.	.	.	.
.	.	8.b	it	.	.	A	.	.
.	.	8.cc	yeah	.	.	.	.	.
=69	=69	=69	=69	=69	=69	=69	=69	=69
1FM	F:maj	1r	.	4r	.	.	158.17	newline
.	.	.	.	8cc	Oh	.	.	.
.	.	.	.	[8a	_	.	.	.
.	.	.	.	4a]	_	.	.	.
.	.	.	.	8cc	Oh	.	.	.
.	.	.	.	8b	_	.	.	.
=70	=70	=70	=70	=70	=70	=70	=70	=70
1GM	G:maj	1r	.	1r	.	.	160.484	.
=71	=71	=71	=71	=71	=71	=71	=71	=71
1Am	A:min	4ee	No-	1r	.	.	162.798	.
.	.	4ee	-thing's	.	.	.	.	.
.	.	8dd	miss-	.	.	.	.	.
.	.	[4.cc	-ing	.	.	a	.	.
=72	=72	=72	=72	=72	=72	=72	=72	=72
1Am	A:min	2cc_	_	1r	.	.	165.113	.
.	.	8cc]	_	.	.	.	.	.
.	.	4a	yeah	.	.	.	.	.
.	.	8r	.	.	.	.	.	.
=73	=73	=73	=73	=73	=73	=73	=73	=73
*>Letter>C	*>Letter>C	*>Letter>C	*>Letter>C	*>Letter>C	*>Letter>C	*>Letter>C	*>Letter>C	*>Letter>C
*>Label>Solo	*>Label>Solo	*>Label>Solo	*>Label>Solo	*>Label>Solo	*>Label>Solo	*>Label>Solo	*>Label>Solo	*>Label>Solo
2DM	D:5	1r	.	1r	.	.	167.427	newline
2FM	F:maj	.	.	.	.	.	168.589	.
=74	=74	=74	=74	=74	=74	=74	=74	=74
2GM	G:5	1r	.	1r	.	.	169.75	.
2Am	A:min	.	.	.	.	.	170.912	.
=75	=75	=75	=75	=75	=75	=75	=75	=75
2DM	D:5	1r	.	1r	.	.	172.074	.
2FM	F:maj	.	.	.	.	.	173.236	.
=76	=76	=76	=76	=76	=76	=76	=76	=76
4GM	G:5	1r	.	1r	.	.	174.397	.
2B-M	B-:maj	.	.	.	.	.	174.978	.
4CM	C:maj	.	.	.	.	.	176.14	.
=77	=77	=77	=77	=77	=77	=77	=77	=77
2DM	D:5	1r	.	1r	.	.	176.721	newline
2FM	F:maj	.	.	.	.	.	177.879	.
=78	=78	=78	=78	=78	=78	=78	=78	=78
2GM	G:5	1r	.	1r	.	.	179.037	.
2Am	A:min	.	.	.	.	.	180.195	.
=79	=79	=79	=79	=79	=79	=79	=79	=79
2DM	D:5	1r	.	1r	.	.	181.353	.
2FM	F:maj	.	.	.	.	.	182.511	.
=80	=80	=80	=80	=80	=80	=80	=80	=80
2CM	C:maj	1r	.	1r	.	.	183.669	.
2Am	A:min	.	.	.	.	.	184.827	.
=81	=81	=81	=81	=81	=81	=81	=81	=81
*>Letter>E	*>Letter>E	*>Letter>E	*>Letter>E	*>Letter>E	*>Letter>E	*>Letter>E	*>Letter>E	*>Letter>E
*>Label>Bridge	*>Label>Bridge	*>Label>Bridge	*>Label>Bridge	*>Label>Bridge	*>Label>Bridge	*>Label>Bridge	*>Label>Bridge	*>Label>Bridge
1FM	F:maj	1r	.	4r	.	.	185.985	newline
.	.	.	.	8cc	Oh	.	.	.
.	.	.	.	4.a	_	.	.	.
.	.	.	.	8cc	Oh	.	.	.
.	.	.	.	8b	_	.	.	.
=82	=82	=82	=82	=82	=82	=82	=82	=82
1GM	G:maj	4r	.	1r	.	.	188.289	.
.	.	4.dd	Yeah	.	.	.	.	.
.	.	16cc	you	.	.	.	.	.
.	.	16cc	can	.	.	.	.	.
.	.	8ff	feel	.	.	.	.	.
.	.	8ff	it	.	.	A	.	.
=83	=83	=83	=83	=83	=83	=83	=83	=83
1FM	F:maj	1r	.	4r	.	.	190.592	.
.	.	.	.	8cc	Oh	.	.	.
.	.	.	.	4.a	_	.	.	.
.	.	.	.	8cc	Oh	.	.	.
.	.	.	.	8dd	_	.	.	.
=84	=84	=84	=84	=84	=84	=84	=84	=84
1GM	G:maj	8r	.	1r	.	.	192.896	.
.	.	2dd	Oh	.	.	.	.	.
.	.	16b	when	.	.	.	.	.
.	.	8.b	it's	.	.	.	.	.
.	.	16cc	love	.	.	.	.	.
.	.	16b	_	.	.	.	.	.
=85	=85	=85	=85	=85	=85	=85	=85	=85
1FM	F:maj	4a	_	4r	.	.	195.2	newline
.	.	4r	.	8cc	Oh	.	.	.
.	.	.	.	[8a	_	.	.	.
.	.	2r	.	4a]	_	.	.	.
.	.	.	.	8cc	Oh	.	.	.
.	.	.	.	8b	_	.	.	.
=86	=86	=86	=86	=86	=86	=86	=86	=86
1GM	G:maj	2r	.	1r	.	.	197.536	.
.	.	4.r	.	.	.	.	.	.
.	.	8a	When	.	.	.	.	.
=87	=87	=87	=87	=87	=87	=87	=87	=87
1Am	A:min	4ee	no-	1r	.	.	199.873	.
.	.	4ee	-thing's	.	.	.	.	.
.	.	8dd	miss-	.	.	.	.	.
.	.	[4.cc	-ing	.	.	a	.	.
=88	=88	=88	=88	=88	=88	=88	=88	=88
1Am	A:min	2cc_	_	1r	.	.	202.209	.
.	.	8cc]	_	.	.	.	.	.
.	.	8aa	Ow!	.	.	.	.	.
.	.	4r	.	.	.	.	.	.
=89	=89	=89	=89	=89	=89	=89	=89	=89
*>Letter>D	*>Letter>D	*>Letter>D	*>Letter>D	*>Letter>D	*>Letter>D	*>Letter>D	*>Letter>D	*>Letter>D
*>Label>Chorus	*>Label>Chorus	*>Label>Chorus	*>Label>Chorus	*>Label>Chorus	*>Label>Chorus	*>Label>Chorus	*>Label>Chorus	*>Label>Chorus
1DM	D:maj	1r	.	8f#	How	.	204.546	newline
.	.	.	.	8g	do	.	.	.
.	.	.	.	8a	I	.	.	.
.	.	.	.	4a	know	.	.	.
.	.	.	.	8g	when	.	.	.
.	.	.	.	8f#	it's	.	.	.
.	.	.	.	[8e	love?	.	.	.
=90	=90	=90	=90	=90	=90	=90	=90	=90
1AM	A:maj	2r	.	4e]	_	.	206.861	.
.	.	.	.	4r	.	.	.	.
.	.	8b	I	2r	.	.	.	.
.	.	4cc#	can't	.	.	.	.	.
.	.	[8dd	tell	.	.	.	.	.
=91	=91	=91	=91	=91	=91	=91	=91	=91
1Bm	B:min	8dd]	_	1r	.	.	209.175	.
.	.	8b	you	.	.	.	.	.
.	.	8f#	but	.	.	.	.	.
.	.	8d	it	.	.	.	.	.
.	.	8d	last	.	.	.	.	.
.	.	4f#	for-	.	.	.	.	.
.	.	8f#	-e-	.	.	(C	.	.
=92	=92	=92	=92	=92	=92	=92	=92	=92
2Em	E:sus4	4e	-ver	1r	.	c)	211.49	.
.	.	4r	.	.	.	.	.	.
2AM	A:maj	8r	.	.	.	.	212.647	.
.	.	4b	Ooh	.	.	.	.	.
.	.	8a	_	.	.	.	.	.
=93	=93	=93	=93	=93	=93	=93	=93	=93
1DM	D:maj	1r	.	8f#	How	.	213.804	newline
.	.	.	.	8g	does	.	.	.
.	.	.	.	8a	it	.	.	.
.	.	.	.	4a	feel	.	.	.
.	.	.	.	8g	when	.	.	.
.	.	.	.	8f#	it's	.	.	.
.	.	.	.	[8e	love?	.	.	.
=94	=94	=94	=94	=94	=94	=94	=94	=94
1AM	A:maj	2r	.	4e]	_	.	216.128	.
.	.	.	.	4r	.	.	.	.
.	.	8b	It's	2r	.	.	.	.
.	.	4cc#	just	.	.	.	.	.
.	.	[8dd	some-	.	.	.	.	.
=95	=95	=95	=95	=95	=95	=95	=95	=95
1Bm	B:min	8dd]	_	1r	.	.	218.452	.
.	.	8b	-thing	.	.	.	.	.
.	.	8f#	you	.	.	.	.	.
.	.	8d	feel	.	.	.	.	.
.	.	4r	.	.	.	.	.	.
.	.	8f#	to-	.	.	.	.	.
.	.	8f#	-ge-	.	.	(C	.	.
=96	=96	=96	=96	=96	=96	=96	=96	=96
2Em	E:sus4	4e	-ther	1r	.	c)	220.775	.
.	.	4r	.	.	.	.	.	.
2AM	A:maj	8r	.	.	.	.	221.937	.
.	.	4b	Hey	.	.	.	.	.
.	.	8r	.	.	.	.	.	.
=97	=97	=97	=97	=97	=97	=97	=97	=97
1DM	D:maj	1r	.	8f#	How	.	223.099	newline
.	.	.	.	8g	do	.	.	.
.	.	.	.	8a	I	.	.	.
.	.	.	.	4a	know	.	.	.
.	.	.	.	8g	when	.	.	.
.	.	.	.	8f#	it's	.	.	.
.	.	.	.	[8e	love?	.	.	.
=98	=98	=98	=98	=98	=98	=98	=98	=98
1AM	A:maj	2r	.	4e]	_	.	225.412	.
.	.	.	.	4r	.	.	.	.
.	.	8b	I	2r	.	.	.	.
.	.	4cc#	can't	.	.	.	.	.
.	.	[8dd	tell	.	.	.	.	.
=99	=99	=99	=99	=99	=99	=99	=99	=99
1Bm	B:min	8dd]	_	1r	.	.	227.725	.
.	.	8b	you	.	.	.	.	.
.	.	8f#	but	.	.	.	.	.
.	.	8d	it	.	.	.	.	.
.	.	8d	last	.	.	.	.	.
.	.	4f#	for-	.	.	.	.	.
.	.	8f#	-e-	.	.	(C	.	.
=100	=100	=100	=100	=100	=100	=100	=100	=100
2Em	E:sus4	4e	-ver	1r	.	c)	230.038	.
.	.	4r	.	.	.	.	.	.
2AM	A:maj	8r	.	.	.	.	231.195	.
.	.	8b	When	.	.	.	.	.
.	.	8b	it's	.	.	.	.	.
.	.	8a	love	.	.	.	.	.
=101	=101	=101	=101	=101	=101	=101	=101	=101
*>Letter>A	*>Letter>A	*>Letter>A	*>Letter>A	*>Letter>A	*>Letter>A	*>Letter>A	*>Letter>A	*>Letter>A
*>Label>Outro	*>Label>Outro	*>Label>Outro	*>Label>Outro	*>Label>Outro	*>Label>Outro	*>Label>Outro	*>Label>Outro	*>Label>Outro
1DM	D:maj	2f#	_	1r	.	.	232.351	newline
.	.	2r	.	.	.	.	.	.
=102	=102	=102	=102	=102	=102	=102	=102	=102
1AM	A:maj	1r	.	1r	.	.	234.702	.
=103	=103	=103	=103	=103	=103	=103	=103	=103
1DM	D:maj/3	1r	.	1r	.	.	237.052	.
=104	=104	=104	=104	=104	=104	=104	=104	=104
1GM	G:maj	8r	.	1r	.	.	239.403	.
.	.	2b	Ooh	.	.	.	.	.
.	.	8b	when	.	.	.	.	.
.	.	8.a	it's	.	.	.	.	.
.	.	16a	love	.	.	.	.	.
=105	=105	=105	=105	=105	=105	=105	=105	=105
1DM	D:maj	8f#	_	1r	.	.	241.754	newline
.	.	16e	_	.	.	.	.	.
.	.	[16d	_	.	.	.	.	.
.	.	4d]	_	.	.	.	.	.
.	.	2r	.	.	.	.	.	.
=106	=106	=106	=106	=106	=106	=106	=106	=106
1AM	A:maj	1r	.	1r	.	.	244.085	.
=107	=107	=107	=107	=107	=107	=107	=107	=107
1DM	D:maj/3	2.r	.	1r	.	.	246.416	.
.	.	8b	Hey!	.	.	.	.	.
.	.	8r	.	.	.	.	.	.
=108	=108	=108	=108	=108	=108	=108	=108	=108
1AM	A:maj	4r	.	1r	.	.	248.747	.
.	.	8r	.	.	.	.	.	.
.	.	8dd	It	.	.	.	.	.
.	.	4dd	lasts	.	.	.	.	.
.	.	8a	for-	.	.	.	.	.
.	.	8b	-e-	.	.	(C	.	.
=109	=109	=109	=109	=109	=109	=109	=109	=109
1DM	D:maj	4a	-ver	4.f#	Na	c)	251.078	newline
.	.	4r	.	.	.	.	.	.
.	.	.	.	[8g	na	.	.	.
.	.	2r	.	4g]	_	.	.	.
.	.	.	.	[4a	na	.	.	.
=110	=110	=110	=110	=110	=110	=110	=110	=110
1AM	A:maj	2r	.	4a]	_	.	253.377	.
.	.	.	.	4.e	na	.	.	.
.	.	8r	.	.	.	.	.	.
.	.	16a	When	8c#	na	.	.	.
.	.	8.f#	it's	.	.	.	.	.
.	.	.	.	4r	.	.	.	.
.	.	[8b	love	.	.	.	.	.
=111	=111	=111	=111	=111	=111	=111	=111	=111
1DM	D:maj/3	4b]	_	4.f#	Na	.	255.676	.
.	.	4r	.	.	.	.	.	.
.	.	.	.	[8g	na	.	.	.
.	.	2r	.	4g]	_	.	.	.
.	.	.	.	[4a	na	.	.	.
=112	=112	=112	=112	=112	=112	=112	=112	=112
1GM	G:maj	1r	.	4a]	_	.	257.975	.
.	.	.	.	4.g	na	.	.	.
.	.	.	.	8d	na	.	.	.
.	.	.	.	4r	.	.	.	.
=113	=113	=113	=113	=113	=113	=113	=113	=113
1DM	D:maj	1r	.	4.f#	Na	.	260.274	newline
.	.	.	.	[8g	na	.	.	.
.	.	.	.	4g]	_	.	.	.
.	.	.	.	[4a	na	.	.	.
=114	=114	=114	=114	=114	=114	=114	=114	=114
1AM	A:maj	1r	.	4a]	_	.	262.589	.
.	.	.	.	4.e	na	.	.	.
.	.	.	.	8c#	na	.	.	.
.	.	.	.	4r	.	.	.	.
=115	=115	=115	=115	=115	=115	=115	=115	=115
1DM	D:maj/3	4r	.	4.f#	Na	.	264.904	.
.	.	16b	You	.	.	.	.	.
.	.	16b	and	.	.	.	.	.
.	.	8b	I	[8g	na	.	.	.
.	.	2r	.	4g]	_	.	.	.
.	.	.	.	[4a	na	.	.	.
=116	=116	=116	=116	=116	=116	=116	=116	=116
1GM	G:maj	8r	.	4a]	_	.	267.219	.
.	.	8dd	We're	.	.	.	.	.
.	.	8dd	gon-	4.g	na	.	.	.
.	.	16dd	-na	.	.	.	.	.
.	.	8.dd	feel	.	.	.	.	.
.	.	8a	this	8d	na	.	.	.
.	.	[4b	way	4r	.	.	.	.
=117	=117	=117	=117	=117	=117	=117	=117	=117
1DM	D:maj	4..b]	_	4.f#	Na	.	269.534	newline
.	.	.	.	[8g	na	.	.	.
.	.	16b	to-	.	.	.	.	.
.	.	8a	-ge-	4g]	_	(C	.	.
.	.	8f#	-ther	.	.	c)	.	.
.	.	4r	.	[4a	na	.	.	.
=118	=118	=118	=118	=118	=118	=118	=118	=118
1AM	A:maj	2r	.	4a]	_	.	271.857	.
.	.	.	.	4.e	na	.	.	.
.	.	8r	.	.	.	.	.	.
.	.	8a	When	8c#	na	.	.	.
.	.	8f#	it's	4r	.	.	.	.
.	.	[8b	love	.	.	.	.	.
=119	=119	=119	=119	=119	=119	=119	=119	=119
1DM	D:maj/3	4b]	_	4.f#	Na	.	274.179	.
.	.	4r	.	.	.	.	.	.
.	.	.	.	[8g	na	.	.	.
.	.	2r	.	4g]	_	.	.	.
.	.	.	.	[4a	na	.	.	.
=120	=120	=120	=120	=120	=120	=120	=120	=120
1GM	G:maj	8r	.	4a]	_	.	276.502	.
.	.	8dd	Ooh	.	.	.	.	.
.	.	8b	_	4.g	na	.	.	.
.	.	4a	_	.	.	.	.	.
.	.	8a	When	8d	na	.	.	.
.	.	8a	it's	4r	.	.	.	.
.	.	8b	love	.	.	.	.	.
=121	=121	=121	=121	=121	=121	=121	=121	=121
1DM	D:maj	4.a	_	4.f#	Na	.	278.824	newline
.	.	16a	ba-	[8g	na	.	.	.
.	.	16a	-by	.	.	.	.	.
.	.	2r	.	4g]	_	.	.	.
.	.	.	.	[4a	na	.	.	.
=122	=122	=122	=122	=122	=122	=122	=122	=122
1AM	A:maj	1r	.	4a]	_	.	281.148	.
.	.	.	.	4.e	na	.	.	.
.	.	.	.	8c#	na	.	.	.
.	.	.	.	4r	.	.	.	.
=123	=123	=123	=123	=123	=123	=123	=123	=123
1DM	D:maj/3	1r	.	4.f#	Na	.	283.472	.
.	.	.	.	[8g	na	.	.	.
.	.	.	.	4g]	_	.	.	.
.	.	.	.	[4a	na	.	.	.
=124	=124	=124	=124	=124	=124	=124	=124	=124
1GM	G:maj	8r	.	4a]	_	.	285.796	.
.	.	16a	You	.	.	.	.	.
.	.	16a	can	.	.	.	.	.
.	.	8.b	feel	4.g	na	.	.	.
.	.	16dd	it	.	.	.	.	.
.	.	4r	.	.	.	.	.	.
.	.	.	.	8d	na	.	.	.
.	.	4dd	Yeah!	4r	.	.	.	.
=125	=125	=125	=125	=125	=125	=125	=125	=125
1DM	D:maj	1r	.	4.f#	Na	.	288.12	newline
.	.	.	.	[8g	na	.	.	.
.	.	.	.	4g]	_	.	.	.
.	.	.	.	[4a	na	.	.	.
=126	=126	=126	=126	=126	=126	=126	=126	=126
1AM	A:maj	1r	.	4a]	_	.	290.438	.
.	.	.	.	4.e	na	.	.	.
.	.	.	.	8c#	na	.	.	.
.	.	.	.	4r	.	.	.	.
=127	=127	=127	=127	=127	=127	=127	=127	=127
1DM	D:maj/3	1r	.	4.f#	Na	.	292.756	.
.	.	.	.	[8g	na	.	.	.
.	.	.	.	4g]	_	.	.	.
.	.	.	.	[4a	na	.	.	.
=128	=128	=128	=128	=128	=128	=128	=128	=128
1GM	G:maj	8r	.	4a]	_	.	295.074	.
.	.	8dd	We'll	.	.	.	.	.
.	.	8dd	make	4.g	na	.	.	.
.	.	8b	it	.	.	.	.	.
.	.	4dd	last	.	.	.	.	.
.	.	.	.	8d	na	.	.	.
.	.	8a	for-	4r	.	.	.	.
.	.	8b	-e-	.	.	(C	.	.
=129	=129	=129	=129	=129	=129	=129	=129	=129
1FM	F:maj	4a	-ver	4.f#	Na	c)	297.392	newline
.	.	4r	.	.	.	.	.	.
.	.	.	.	[8g	na	.	.	.
.	.	2r	.	4g]	_	.	.	.
.	.	.	.	[4a	na	.	.	.
=130	=130	=130	=130	=130	=130	=130	=130	=130
1CM	C:maj	1r	.	4a]	_	.	299.844	.
.	.	.	.	4.e	na	.	.	.
.	.	.	.	8c#	na	.	.	.
.	.	.	.	4r	.	.	.	.
=131	=131	=131	=131	=131	=131	=131	=131	=131
1FM	F:maj	1r	.	4.f#	Na	.	302.295	.
.	.	.	.	[8g	na	.	.	.
.	.	.	.	4g]	_	.	.	.
.	.	.	.	[4a	na	.	.	.
=132	=132	=132	=132	=132	=132	=132	=132	=132
1CM	C:maj	8r	.	4a]	_	.	304.747	.
.	.	8dd	Ooh	.	.	.	.	.
.	.	8b	_	4.g	na	.	.	.
.	.	4a	_	.	.	.	.	.
.	.	8a	It's	8d	na	.	.	.
.	.	8r	.	4r	.	.	.	.
.	.	16f	love	.	.	.	.	.
.	.	16e	_	.	.	.	.	.
=133	=133	=133	=133	=133	=133	=133	=133	=133
1DM	D:maj	4d	_	1r	.	.	307.199	newline
.	.	4r	.	.	.	.	.	.
.	.	2r	.	.	.	.	.	.
1r;	1r	r;	.	r;	.	.	315.174	.
1r;	1r	r;	.	r;	.	.	322.403	.
*-	*-	*-	*-	*-	*-	*-	*-	*-
!!!BillboardChartDate: 1988/07/30
!!!BillboardPeak: 29
!!!BillboardWeeksOnChart: 2
!!!COC: Van Halen
!!!ENC: Nathaniel Condit-Schultz
!!!EST: Awating manual error checking and editing.
!!!OTL: When It's Love
!!!RDF**chordsym: original McGill chord annotation + (implied pitch class set, with bass pitch in first position)
!!!RDF**harmony: **recip + pitch class of root + harmonic quality
!!!RDF**leadinstrument: original McGill primary instrumentation annotation
!!!RDF**phrase: newline = linebreak in original McGill transcription
!!!RDF**timestamp: McGill audio timestamp in seconds
!!!RDT: 2017/01/12/
!!!SampleActualRank: 29
!!!SampleID#: 1281
!!!SampleTargetRank: 30
!!!MBID: 011567cb-383f-4e84-a985-9bfd95666740